src/components/00-materials/images-raw/Life & Savings/bank Pound.svg

<svg xmlns="http://www.w3.org/2000/svg" viewBox="0 0 96 96"><g fill="none" stroke="#00008f" stroke-linecap="round" stroke-linejoin="round" stroke-width="2"><path d="M24 68l1-30m6 0l1 30m19-30l1 30m-8 0l1-30M19 73v-5h58v5"/><circle cx="48" cy="25" r="3"/><path d="M15 73h66v5H15zm4-40v5h40m-1-6a13 13 0 0 1 3-8.35L48 16 19 33h39.05c-.05-.33-.05-.66-.05-1zm14 36l-.9-23.01m-6.08-1.45L64 68"/><circle cx="71" cy="32" r="13"/><path d="M68 28v3.88a10.33 10.33 0 0 1-1.73 5.72L66 38h9m-9-6h6m-4-4a3 3 0 0 1 6 0"/></g></svg>

<svg xmlns="http://www.w3.org/2000/svg" viewBox="0 0 96 96"><defs><style>.cls-2{fill:none;stroke:#00008f;stroke-linecap:round;stroke-linejoin:round;stroke-width:2px}</style></defs><g id="Layer_2" ><g id="icons"><path class="cls-2" d="M24 68l1-30M31 38l1 30M51 38l1 30M44 68l1-30M19 73v-5h58v5"/><circle class="cls-2" cx="48" cy="25" r="3"/><path class="cls-2" d="M15 73h66v5H15zM19 33v5h40M58 32a13 13 0 0 1 3-8.35L48 16 19 33h39.05c-.05-.33-.05-.66-.05-1zM72 68l-.9-23.01M65.02 43.54L64 68"/><circle class="cls-2" cx="71" cy="32" r="13"/><path class="cls-2" d="M68 28v3.88a10.33 10.33 0 0 1-1.73 5.72L66 38h9M66 32h6M68 28a3 3 0 0 1 6 0"/></g></g></svg>
